X:2
T:Jig of Slurs
C:G.S. MacLennan
Z:2015 John Chambers <jc:trillian.mit.edu>
N:From a printed version from Dan Wheatley 2015-6
M:6/8
L:1/8
K:D
B |\
"D"Add dcd | "G"Bdd "D"Add | "G"Bdd "D"Add | "Em"Bee "A7"edB |\
"D"Add dcd | "G"Bdd "D"Add | "G"Bdd "A7"cde | "(D)"fdc "D"d2 :|
|: B |\
"D"Aff fef | aff fed | "Em"Bee ede | "D"fed "Em"edB |\
"D"Aff fef | aff fed | "G"Bdd "A7"cde | "(D)"fdc "D"d2 :|
K:G
|: B |\
"G"G2g gfg | "D7"agf "G"gdB | "G"G2g gfg | "D7"agf "G"g2B |\
"G"G2g gfg | "D7"agf "G"gdB | "Em"Bee efg | "D"fed "Em"e2 :|
|: B |\
"G"GBB Bdd | "C"dee "D7"edB | "G"GBB Bdd | "C"dee "D7"efg |\
"G"GBB Bdd | "C"dee "D"edB | "Em"Bee efg | "D"fed "Em"e2 :|
